svgs/thin/backpack.svg

<svg xmlns="http://www.w3.org/2000/svg" viewBox="0 0 448 512"><!-- Font Awesome Pro 6.0.0-alpha2 by @fontawesome - https://fontawesome.com License - https://fontawesome.com/license (Commercial License) --><path d="M320 80H304V40C304 17.938 286.062 0 264 0H184C161.938 0 144 17.938 144 40V80H128C57.309 80 0 137.307 0 208V448C0 483.346 28.654 512 64 512H384C419.348 512 448 483.346 448 448V208C448 137.307 390.693 80 320 80ZM160 40C160 26.766 170.766 16 184 16H264C277.234 16 288 26.766 288 40V80H160V40ZM352 496H96V392H352V496ZM352 376H96V352C96 325.533 117.533 304 144 304H304C330.467 304 352 325.533 352 352V376ZM432 448C432 474.467 410.467 496 384 496H368V352C368 316.654 339.348 288 304 288H144C108.654 288 80 316.654 80 352V496H64C37.533 496 16 474.467 16 448V208C16 146.242 66.244 96 128 96H320C381.758 96 432 146.242 432 208V448ZM312 184H136C131.578 184 128 187.578 128 192S131.578 200 136 200H312C316.422 200 320 196.422 320 192S316.422 184 312 184Z"/></svg>

<svg xmlns="http://www.w3.org/2000/svg" viewBox="0 0 448 512"><!--! Font Awesome Pro 6.3.0 by @fontawesome - https://fontawesome.com License - https://fontawesome.com/license (Commercial License) Copyright 2023 Fonticons, Inc. --><path d="M320 80h-16V40C304 17.94 286.1 0 264 0h-80C161.9 0 144 17.94 144 40V80H128c-70.69 0-128 57.31-128 128V448c0 35.35 28.65 64 64 64h320c35.35 0 64-28.65 64-64V208C448 137.3 390.7 80 320 80zM160 40C160 26.77 170.8 16 184 16h80C277.2 16 288 26.77 288 40V80H160V40zM352 496H96v-104h256V496zM352 376H96V352c0-26.47 21.53-48 48-48h160c26.47 0 48 21.53 48 48V376zM432 448c0 26.47-21.53 48-48 48h-16V352c0-35.35-28.65-64-64-64h-160c-35.35 0-64 28.65-64 64v144H64c-26.47 0-48-21.53-48-48V208C16 146.2 66.24 96 128 96h192c61.76 0 112 50.24 112 112V448zM312 184h-176C131.6 184 128 187.6 128 192s3.578 8 8 8h176C316.4 200 320 196.4 320 192S316.4 184 312 184z"/></svg>
